assets/icons/text-field-expand.svg

<svg xmlns="http://www.w3.org/2000/svg" viewBox="0 0 16 16" role="presentation" aria-hidden="true"><path fill-rule="evenodd" clip-rule="evenodd" d="M14.8536 7.80334C15.0488 7.61957 15.0488 7.32161 14.8536 7.13783C14.6583 6.95406 14.3417 6.95406 14.1464 7.13783L7.14645 13.7261C6.95118 13.9098 6.95118 14.2078 7.14645 14.3916C7.34171 14.5754 7.65829 14.5754 7.85355 14.3916L14.8536 7.80334ZM14.8536 12.0386C15.0488 11.8549 15.0488 11.5569 14.8536 11.3731C14.6583 11.1894 14.3417 11.1894 14.1464 11.3731L11.1464 14.1967C10.9512 14.3804 10.9512 14.6784 11.1464 14.8622C11.3417 15.0459 11.6583 15.0459 11.8536 14.8622L14.8536 12.0386Z" fill="currentColor"/></svg>

<svg xmlns="http://www.w3.org/2000/svg" aria-hidden="true" viewBox="0 0 16 16"><path fill="currentColor" fill-rule="evenodd" d="M14.854 7.803a.45.45 0 0 0 0-.665.52.52 0 0 0-.708 0l-7 6.588a.45.45 0 0 0 0 .666.52.52 0 0 0 .708 0zm0 4.236a.45.45 0 0 0 0-.666.523.523 0 0 0-.708 0l-3 2.824a.45.45 0 0 0 0 .665.523.523 0 0 0 .708 0z" clip-rule="evenodd"/></svg>
